!!! OTL: Literature90
!!! Chapter: 5
!!! Section: III
!!! Page: 365
!!! Mode: 
!!! Encoder: DJB
**kern
*staff1
*I"Piano
=1-
*clefF4
*k[]
*C:
*M4/4
4r
4r
2GG/
=2
[1G
=3
4G\]
4F\
4E\
8D\L
8F\J
=4
4E\
4r
[2D\
=5
4D\]
4E\
4.D\
8AA/
=6
[1GG
=7
4GG/]
4E\
4.D\
8AA/
=8
[1GG
=9
4GG/]
4F\
4E\
8D\L
8E\J
=10
4AA/
4r
[2GG/
=11
!!linebreak:original
6GG/]
6BB/
6C/
6D\
6E\
12r
12F\
=12
[1B
=13
1B_
=14
4B\]
4r
2r
==
*-
